X:1
T:The Water of Life
T:The Water of Life
T:William Batchelder Bradbury
T:Frances Jane (Fanny) Crosby, 1867
T:Public Domain Courtesy of the Cyber Hymnal™
T:Public Domain Courtesy of the Cyber Hymnal™
T:Public Domain Courtesy of the Cyber Hymnal™
C:William Batchelder Bradbury
Z:Public Domain
Z:Courtesy of the Cyber Hymnal™
%%score ( 1 2 ) ( 3 4 )
L:1/8
Q:1/4=195
M:6/4
K:Bb
V:1 treble 
V:2 treble 
V:3 bass 
V:4 bass 
V:1
 [DF]2 [DF]2 [DF]2 [DF]2 [DF]2 [DF]2 | [DB]4 [EG]2 [DF]6 | [Fd]4 [Fc]2 [FB]4 [Fd]2 | [Fc]6 [Fc]6 | %4
w: 1.~Je- sus the wa- ter of|life will give,|Free- ly, free- ly,|free- ly;|
w: 2.~Je- sus has prom- ised a|home in Heav’n,|Free- ly, free- ly,|free- ly;|
w: 3.~Je- sus has prom- ised a|robe of white|Free- ly, free- ly,|free- ly;|
w: 4.~Je- sus has prom- ised e-|ter- nal day,|Free- ly, free- ly,|free- ly;|
 [DF]2 [DF]2 [DF]2 [DF]2 [DF]2 [DF]2 | [DB]4 [EG]2 [DF]6 | [Fd]2 [Fd]2 [FB]2 (c2 B2) [EA]2 | %7
w: Je- sus the wa- ter of|life will give,|Free- ly to those * who|
w: Je- sus has prom- ised a|home in Heav’n,|Free- ly to those * who|
w: Je- sus has prom- ised a|robe of white|Free- ly to those * who|
w: Je- sus has prom- ised e-|ter- nal day,|Free- ly to those * who|
 [DB]6 [DB]4 | [DF]2 [DF]2 [DF]2 [DF]2 [DF]2 [DF]2 | [DB]4 [EG]2 [DF]6 | [Fd]4 [Fc]2 [FB]4 [Fd]2 | %11
w: love Him.|Come to that fount- ain, oh|drink, and live!|Free- ly, free- ly,|
w: love Him.|Trea- sures un- fad- ing will|there be giv’n|Free- ly, free- ly,|
w: love Him.|King- doms of glo- ry and|crowns of light,|Free- ly, free- ly,|
w: love Him.|Plea- sures that nev- er shall|pass a- way,|Free- ly, free- ly,|
 [Fc]6 [Fc]6 | [DF]2 [DF]2 [DF]2 [DF]2 [DF]2 [DF]2 | [DB]4 [EG]2 [DF]6 | %14
w: free- ly;|Come to that fount- ain, oh,|drink and live!|
w: free- ly;|Trea- sures un- fad- ing will|there be giv’n|
w: free- ly;|King- doms of glo- ry and|crowns of light,|
w: free- ly;|Plea- sures that nev- er shall|pass a- way,|
 [Fd]2 [Fd]2 [FB]2 (c2 B2) [EA]2 | [DB]6 [DB]4 ||"^Duet" [Ac]2 | [Ac]4 [Ac]2 [Ac]4 [Bd]2 | %18
w: Flow- ing for those * that|love Him.|||
w: Free- ly to those * who|love Him.|||
w: Free- ly to those * who|love Him.|The|Spir- it and the|
w: Free- ly to those * who|love Him.|||
 [Ac]4 [FA]2 [Ac]6 | [=Ec]4 [EG]2 [EG]4 [GB]2 | [FA]6 [Ac]4"^Duet" [Ac]2 | %21
w: |||
w: |||
w: Bride say, Come;|Free- ly, free- ly,|free- ly; And|
w: |||
 [Ac]2 [Ac]2 [Ac]2 [Ac]4 [Bd]2 | [Ac]4 [FA]2 [Ac]4 [Ac]2 | [Ac]2 [GB]2 [FA]2 [=EG]2 [FA]2 [EG]2 | %24
w: |||
w: |||
w: he that is thirst- y|let him come, And|drink of the wa- ter of|
w: |||
 F6- F4 |"^Full Chorus" [EF]2 | [DB]2 [DB]2 [DB]2 [DB]4 [DB]2 | [FB]6 [Bd]6 | %28
w: ||||
w: ||||
w: life. *|The|fount- ain of life is|flow- ing,|
w: ||||
 [Gc]4 G2 [Gc]4 [GB]2 | (A4 G2) F4 [EF]2 | [DB]2 [DB]2 [DB]2 [DB]4 F2 | %31
w: |||
w: |||
w: Flow- ing, free- ly|flow- * ing; The|fount- ain of life is|
w: |||
 [EG]6 !fermata![GB]4 [EG]2 |"^riten." [DF]2 [DB]2 [DB]2 [EA]2 [EG]2 [EA]2 | [DB]12 |] %34
w: |||
w: |||
w: flow- ing, Is|flow- ing for you and for|me.|
w: |||
V:2
 x12 | x12 | x12 | x12 | x12 | x12 | x6 F4 x2 | x10 | x12 | x12 | x12 | x12 | x12 | x12 | %14
 x6 F4 x2 | x10 || x2 | x12 | x12 | x12 | x12 | x12 | x12 | x12 | F6- F4 | x2 | x12 | x12 | %28
 x4 G2 x6 | F6 F4 x2 | x10 F2 | x12 | x12 | x12 |] %34
V:3
 [B,,B,]2 [B,,B,]2 [B,,B,]2 [B,,B,]2 [B,,B,]2 [B,,B,]2 | [B,,B,]4 [B,,B,]2 [B,,B,]6 | %2
 B,4 [F,A,]2 [D,B,]4 [B,,B,]2 | [F,A,]6 [F,A,]6 | %4
 [B,,B,]2 [B,,B,]2 [B,,B,]2 [B,,B,]2 [B,,B,]2 [B,,B,]2 | [B,,B,]4 [B,,B,]2 [B,,B,]6 | %6
 [F,B,]2 [F,C]2 [F,D]2 (E2 D2) [F,C]2 | [B,,B,]6 [B,,B,]4 | %8
 [B,,B,]2 [B,,B,]2 [B,,B,]2 [B,,B,]2 [B,,B,]2 [B,,B,]2 | [B,,B,]4 [B,,B,]2 [B,,B,]6 | %10
 B,4 [F,A,]2 [D,B,]4 [B,,B,]2 | [F,A,]6 [F,A,]6 | %12
 [B,,B,]2 [B,,B,]2 [B,,B,]2 [B,,B,]2 [B,,B,]2 [B,,B,]2 | [B,,B,]4 [B,,B,]2 [B,,B,]6 | %14
 [F,B,]2 [F,C]2 [F,D]2 (E2 D2) [F,C]2 | [B,,B,]6 [B,,B,]4 || z2 | z12 | z12 | %19
 [C,C]4 [C,C]2 [C,C]4 [C,C]2 | [F,C]6 [F,C]4 z2 | z12 | z8 z2 [F,C]2 | %23
 [F,C]2 [F,C]2 [F,C]2 [C,B,]2 [C,C]2 [C,B,]2 | [F,A,]6- [F,A,]4 | [F,A,]2 | %26
 [B,,B,]2 [B,,F,]2 [B,,F,]2 [B,,F,]4 B,2 | [B,D]6 [B,F]6 | [E,E]4 [E,E]2 [E,E]4 [E,E]2 | %29
 (C4 B,2) [F,A,]4 [F,A,]2 | [B,,B,]2 [B,,F,]2 [B,,F,]2 [B,,F,]4 [D,B,]2 | %31
 [E,B,]6 !fermata![E,B,]4 [E,B,]2 | [F,B,]2 [F,B,]2 [F,B,]2 [F,C]2 [F,C]2 [F,C]2 | [B,,B,]12 |] %34
V:4
 x12 | x12 | B,4 x8 | x12 | x12 | x12 | x6 F,4 x2 | x10 | x12 | x12 | B,4 x8 | x12 | x12 | x12 | %14
 x6 F,4 x2 | x10 || x2 | x12 | x12 | x12 | x12 | x12 | x12 | x12 | x10 | x2 | x10 B,2 | x12 | x12 | %29
 F,6 x6 | x12 | x12 | x12 | x12 |] %34

